storage/app/icons/phosphoricons/bold/couch-bold.svg

<svg xmlns="http://www.w3.org/2000/svg" fill="currentColor" viewBox="0 0 256 256"><path d="M244 104V72a20 20 0 0 0-20-20H32a20 20 0 0 0-20 20v32a20 20 0 0 0-8 16v48a20 20 0 0 0 20 20h4v12a12 12 0 0 0 24 0v-12h152v12a12 12 0 0 0 24 0v-12h4a20 20 0 0 0 20-20v-48a20 20 0 0 0-8-16m-24-4h-12a20 20 0 0 0-20 20v4h-48V76h80ZM116 76v48H68v-4a20 20 0 0 0-20-20H36V76Zm112 88H28v-40h16v12a12 12 0 0 0 12 12h144a12 12 0 0 0 12-12v-12h16Z"/></svg>

<svg xmlns="http://www.w3.org/2000/svg" viewBox="0 0 256 256" fill="currentColor"><path d="M244,104V72a20,20,0,0,0-20-20H32A20,20,0,0,0,12,72v32a20,20,0,0,0-8,16v48a20,20,0,0,0,20,20h4v12a12,12,0,0,0,24,0V188H204v12a12,12,0,0,0,24,0V188h4a20,20,0,0,0,20-20V120A20,20,0,0,0,244,104Zm-24-4H208a20,20,0,0,0-20,20v4H140V76h80ZM116,76v48H68v-4a20,20,0,0,0-20-20H36V76Zm112,88H28V124H44v12a12,12,0,0,0,12,12H200a12,12,0,0,0,12-12V124h16Z"/></svg>
